X: 16889
T: Haughs Of Cromdale, The
R: strathspey
M: 4/4
K: Edorian
|:c>d|B>EF>E B/A/F/G/ B<d|B<EE>F G/F/E/D/ F<A|B<EF>E B/A/F/G/ B<d|B>d B/A/G/F/ E>d:|
|:A>F|D2 d>e d/c/B/c/ d2|F2 A>B B/A/G/F/ A2|1 B2 ef/g/ g/f/e/d/ e2|B/A/G/A/ B/A/G/F/ E2:|
[2 E>ee>f g2 (3fed|(3Bcd A<F E2||

